svgs/thin/restroom-simple.svg

<svg xmlns="http://www.w3.org/2000/svg" viewBox="0 0 576 512"><!-- Font Awesome Pro 6.0.0-alpha2 by @fontawesome - https://fontawesome.com License - https://fontawesome.com/license (Commercial License) --><path d="M448 128C483.375 128 512 99.375 512 64S483.375 0 448 0S384 28.625 384 64S412.625 128 448 128ZM448 16C474.467 16 496 37.533 496 64S474.467 112 448 112S400 90.467 400 64S421.533 16 448 16ZM575.375 363.604L523.834 183.209C519.908 169.471 507.352 160 493.064 160H402.936C388.648 160 376.092 169.471 372.166 183.209L320.625 363.604C317.705 373.824 325.379 384 336.01 384H376V480C376 497.641 390.344 512 408 512S440 497.641 440 480V384H456V480C456 497.641 470.344 512 488 512S520 497.641 520 480V384H559.99C570.621 384 578.295 373.824 575.375 363.604ZM424 480C424 488.828 416.812 496 408 496S392 488.828 392 480V384H424V480ZM504 480C504 488.828 496.812 496 488 496S472 488.828 472 480V384H504V480ZM336.01 368L387.551 187.605C389.502 180.771 395.83 176 402.936 176H493.064C500.17 176 506.498 180.771 508.449 187.604L559.99 368H336.01ZM96 128C131.375 128 160 99.375 160 64S131.375 0 96 0S32 28.625 32 64S60.625 128 96 128ZM96 16C122.467 16 144 37.533 144 64S122.467 112 96 112S48 90.467 48 64S69.533 16 96 16ZM128 160H64C28.654 160 0 188.652 0 224V320C0 337.672 14.326 352 32 352H24V480C24 497.641 38.344 512 56 512S88 497.641 88 480V352H104V480C104 497.641 118.344 512 136 512S168 497.641 168 480V352H160C177.674 352 192 337.672 192 320V224C192 188.652 163.346 160 128 160ZM72 480C72 488.828 64.812 496 56 496S40 488.828 40 480V352H72V480ZM152 480C152 488.828 144.812 496 136 496S120 488.828 120 480V352H152V480ZM176 320C176 328.822 168.822 336 160 336H32C23.178 336 16 328.822 16 320V224C16 197.533 37.533 176 64 176H128C154.467 176 176 197.533 176 224V320ZM256 0C251.578 0 248 3.594 248 8V504C248 508.406 251.578 512 256 512S264 508.406 264 504V8C264 3.594 260.422 0 256 0Z"/></svg>

<svg xmlns="http://www.w3.org/2000/svg" viewBox="0 0 576 512"><!--! Font Awesome Pro 6.0.0-alpha3 by @fontawesome - https://fontawesome.com License - https://fontawesome.com/license (Commercial License) --><path d="M448 128c35.38 0 64-28.62 64-64s-28.62-64-64-64s-64 28.62-64 64S412.6 128 448 128zM448 16c26.47 0 48 21.53 48 48S474.5 112 448 112S400 90.47 400 64S421.5 16 448 16zM575.4 363.6l-51.54-180.4C519.9 169.5 507.4 160 493.1 160h-90.13c-14.29 0-26.84 9.471-30.77 23.21l-51.54 180.4C317.7 373.8 325.4 384 336 384H376v96c0 17.64 14.34 32 32 32s32-14.36 32-32v-96h16v96c0 17.64 14.34 32 32 32s32-14.36 32-32v-96h39.99C570.6 384 578.3 373.8 575.4 363.6zM424 480c0 8.828-7.188 16-16 16s-16-7.172-16-16v-96h32V480zM504 480c0 8.828-7.188 16-16 16s-16-7.172-16-16v-96h32V480zM336 368l51.54-180.4C389.5 180.8 395.8 176 402.9 176h90.13c7.105 0 13.43 4.771 15.38 11.6L559.1 368H336zM96 128c35.38 0 64-28.62 64-64S131.4 0 96 0S32 28.62 32 64S60.63 128 96 128zM96 16c26.47 0 48 21.53 48 48S122.5 112 96 112S48 90.47 48 64S69.53 16 96 16zM128 160H64C28.65 160 0 188.7 0 224v96c0 17.67 14.33 32 32 32H24v128c0 17.64 14.34 32 32 32s32-14.36 32-32v-128h16v128c0 17.64 14.34 32 32 32s32-14.36 32-32v-128H160c17.67 0 32-14.33 32-32V224C192 188.7 163.3 160 128 160zM72 480c0 8.828-7.188 16-16 16s-16-7.172-16-16v-128h32V480zM152 480c0 8.828-7.188 16-16 16s-16-7.172-16-16v-128h32V480zM176 320c0 8.822-7.178 16-16 16H32c-8.822 0-16-7.178-16-16V224c0-26.47 21.53-48 48-48h64c26.47 0 48 21.53 48 48V320zM256 0C251.6 0 248 3.594 248 8v496C248 508.4 251.6 512 256 512s8-3.594 8-8V8C264 3.594 260.4 0 256 0z"/></svg>
